X: 601
T: The Atholl Highlanders Jig (Balkan version)
O: Trad
R: jig-time march
Z: John Chambers <jc:trillian.mit.edu> http://trillian.mit.edu/~jc/music/
M: 6/8
L: 1/8
K: APhr
c/d/ |: "A"e3 e>cA  | ecA "Gm"Bcd  |1,3 "A"e3 e>cA  | "Gm"Bcd cBA :|2,4 "A"e<ae "Dm"fed | "Gm"cdB "A"A2 c/B/ :|
|: "A"A>ce Ace | "Dm"A>df Adf |1 "A"A>ce Ace | "Gm"Bcd c2B :|2 "A"e<ae "Dm"fed | "Gm"cdB "A"A2 e:|
|: "A"a2e edc  | a2e edc     |1  a2e edc    | "Gm"Bcd cBA :|2 "A"e<ae "Dm"fed | "Gm"cdB "A"A2 A/B/:|
|: "A"c>Ac cAc | "Gm"d<Bd dBd |1 "A"c<Ac cAc | "Gm"B<GB Bcd :|2 "A"e<ae "Dm"fed | "Gm"cdB "A"A3 :|



